X: 33744
T: Rattigan's
R: reel
M: 4/4
K: Gmajor
|:(3DEF|G2BG DGBd|g2fg edBA|G2BG DGBG|ABAG FDEF|
GEED EDB, A,|G,2fg edBA|G2BG DGBG|AGFA G2:|
|:Bc|dggf gfed|eaag a2eg|fdad bdag|fdaf gfed|
BG ~G2 EGDE|G2fg edBA|G2BG DGBG|AGFA G2:|

